assets/heart_icon.svg

<svg width="70" height="70" viewBox="0 0 70 70" fill="none" xmlns="http://www.w3.org/2000/svg">
<path d="M48.3738 23.7436C47.5704 22.941 46.6166 22.3043 45.5667 21.8699C44.5169 21.4355 43.3916 21.2119 42.2552 21.2119C41.1188 21.2119 39.9935 21.4355 38.9436 21.8699C37.8938 22.3043 36.9399 22.941 36.1365 23.7436L34.4692 25.4085L32.802 23.7436C31.1792 22.1231 28.9783 21.2128 26.6833 21.2128C24.3884 21.2128 22.1875 22.1231 20.5647 23.7436C18.9419 25.364 18.0303 27.5618 18.0303 29.8535C18.0303 32.1452 18.9419 34.343 20.5647 35.9635L22.232 37.6284L34.4692 49.8483L46.7065 37.6284L48.3738 35.9635C49.1776 35.1612 49.8151 34.2087 50.2502 33.1604C50.6852 32.112 50.9091 30.9883 50.9091 29.8535C50.9091 28.7187 50.6852 27.595 50.2502 26.5467C49.8151 25.4983 49.1776 24.5458 48.3738 23.7436Z" stroke="white" stroke-width="4" stroke-linecap="round" stroke-linejoin="round"/>
<circle cx="35" cy="35" r="33" stroke="#66FCF1" stroke-width="4"/>
</svg>

<?xml version="1.0" encoding="utf-8"?>
<!-- Generator: Adobe Illustrator 27.2.0, SVG Export Plug-In . SVG Version: 6.00 Build 0)  -->
<svg version="1.1" id="Layer_1" xmlns="http://www.w3.org/2000/svg" xmlns:xlink="http://www.w3.org/1999/xlink" x="0px" y="0px"
	 viewBox="0 0 70 70" style="enable-background:new 0 0 70 70;" xml:space="preserve">
<style type="text/css">
	.st0{fill:none;stroke:#FFFFFF;stroke-width:4;stroke-linecap:round;stroke-linejoin:round;}
	.st1{fill:none;stroke:#FF3FE6;stroke-width:4;}
</style>
<path class="st0" d="M48.4,23.7c-0.8-0.8-1.8-1.4-2.8-1.9c-1-0.4-2.2-0.7-3.3-0.7c-1.1,0-2.3,0.2-3.3,0.7c-1,0.4-2,1.1-2.8,1.9
	l-1.7,1.7l-1.7-1.7c-1.6-1.6-3.8-2.5-6.1-2.5c-2.3,0-4.5,0.9-6.1,2.5c-1.6,1.6-2.5,3.8-2.5,6.1s0.9,4.5,2.5,6.1l1.7,1.7l12.2,12.2
	l12.2-12.2l1.7-1.7c0.8-0.8,1.4-1.8,1.9-2.8c0.4-1,0.7-2.2,0.7-3.3s-0.2-2.3-0.7-3.3C49.8,25.5,49.2,24.5,48.4,23.7z"/>
<circle class="st1" cx="35" cy="35" r="33"/>
</svg>
